plotter_gui/resources/svg/grid.svg

<?xml version="1.0" encoding="UTF-8" standalone="no"?>
<svg
   xmlns:dc="http://purl.org/dc/elements/1.1/"
   xmlns:cc="http://creativecommons.org/ns#"
   xmlns:rdf="http://www.w3.org/1999/02/22-rdf-syntax-ns#"
   xmlns:svg="http://www.w3.org/2000/svg"
   xmlns="http://www.w3.org/2000/svg"
   xmlns:sodipodi="http://sodipodi.sourceforge.net/DTD/sodipodi-0.dtd"
   xmlns:inkscape="http://www.inkscape.org/namespaces/inkscape"
   inkscape:version="0.92.3 (2405546, 2018-03-11)"
   sodipodi:docname="grid.svg"
   id="svg10"
   xml:space="preserve"
   enable-background="new 0 0 1000 1000"
   viewBox="0 0 1000 1000"
   y="0px"
   x="0px"
   version="1.1"><defs
   id="defs14" /><sodipodi:namedview
   inkscape:current-layer="svg10"
   inkscape:window-maximized="1"
   inkscape:window-y="27"
   inkscape:window-x="67"
   inkscape:cy="500"
   inkscape:cx="309.01288"
   inkscape:zoom="0.932"
   inkscape:pagecheckerboard="true"
   showgrid="false"
   id="namedview12"
   inkscape:window-height="1385"
   inkscape:window-width="2493"
   inkscape:pageshadow="2"
   inkscape:pageopacity="0"
   guidetolerance="10"
   gridtolerance="10"
   objecttolerance="10"
   borderopacity="1"
   bordercolor="#666666"
   pagecolor="#ffffff" />
<metadata
   id="metadata2"> Svg Vector Icons : http://www.onlinewebfonts.com/icon <rdf:RDF><cc:Work
     rdf:about=""><dc:format>image/svg+xml</dc:format><dc:type
       rdf:resource="http://purl.org/dc/dcmitype/StillImage" /><dc:title /></cc:Work></rdf:RDF></metadata>
<g
   style="fill:#000000;fill-opacity:1"
   id="g8"
   transform="matrix(0.91460023,0,0,0.91025949,39.480335,44.871152)"><g
     style="fill:#000000;fill-opacity:1"
     id="g6"
     transform="matrix(0.1,0,0,-0.1,0,511)"><path
       style="fill:#000000;fill-opacity:1"
       id="path4"
       d="M 521.3,4979.1 C 356.5,4920.5 161.3,4716.7 117.9,4558.3 102.7,4502 98.3,3057.5 100.5,64.4 l 6.5,-4411.5 58.6,-101.9 c 32.5,-54.2 104.1,-138.8 158.3,-186.5 193,-169.2 -210.4,-156.2 4673.9,-156.2 4975.4,0 4493.9,-19.5 4708.6,193 212.6,214.7 193,-266.8 193,4708.6 0,4975.4 19.5,4493.9 -193,4708.6 -214.7,212.5 268.9,193 -4717.3,193 -3669.7,-2 -4396.3,-6.3 -4467.8,-32.4 z M 2308.4,3721.2 V 2799.4 H 1386.6 464.9 v 841.5 c 0,629 6.5,852.4 28.2,893.6 52.1,104.1 75.9,108.4 976,108.4 h 839.4 v -921.7 z m 2494.3,0 V 2799.4 H 3739.9 2677.2 v 921.8 921.8 h 1062.7 1062.8 z m 2515.9,0 V 2799.4 H 6255.8 5193.1 v 921.8 921.8 h 1062.8 1062.7 z m 2090.8,900.1 c 117.1,-43.4 121.4,-75.9 121.4,-986.8 v -835 H 8609 7687.2 v 921.8 921.7 h 832.9 c 479.3,0 856.7,-8.7 889.3,-21.7 z M 2308.4,1367.9 V 305.2 H 1386.6 464.9 V 1368 2430.8 h 921.8 921.8 V 1367.9 Z m 2494.3,0 V 305.2 H 3739.9 2677.2 v 1047.6 c 0,576.9 6.5,1056.3 15.2,1062.8 6.5,8.7 485.8,15.2 1062.7,15.2 h 1047.6 z m 2511.5,-4.3 4.3,-1058.4 H 6255.8 5193.1 V 1368 2430.8 l 1058.4,-4.3 1056.3,-6.5 z m 2216.6,4.3 V 305.2 H 8609 7687.2 V 1368 2430.8 H 8609 9530.8 Z M 2308.4,-1139.3 V -2210.7 H 1386.6 464.9 v 1071.4 1071.4 h 921.8 l 921.8,2.2 v -1073.6 z m 2494.3,0 v -1071.4 l -1056.2,4.3 -1058.4,6.5 -6.5,1041.1 c -2.2,572.6 0,1051.9 4.3,1064.9 6.5,19.5 295,26 1062.7,26 h 1054.1 z m 2505,2.2 v -1062.8 l -1056.3,-6.5 -1058.4,-4.3 v 1071.4 1071.4 l 1058.5,-2.1 1056.3,-4.3 v -1062.8 z m 2223.1,-2.2 V -2210.7 H 8609 7687.2 v 1071.4 1073.6 l 921.8,-2.2 h 921.8 z M 2308.4,-3501.2 v -923.9 l -867.6,6.5 -865.4,6.5 -49.9,49.9 -49.9,49.9 -6.5,865.4 -6.5,867.5 h 924 921.8 z m 2494.3,0 V -4423 H 3739.9 2677.2 v 921.8 921.8 h 1062.7 1062.8 z m 2515.9,0 V -4423 H 6255.8 5193.1 v 921.8 921.8 h 1062.8 1062.7 z m 2212.2,86.8 c 0,-598.6 -6.5,-848 -26,-889.2 -52.1,-117.1 -73.7,-119.3 -982.5,-119.3 h -835 v 921.8 921.8 h 921.7 921.8 z"
       inkscape:connector-curvature="0" /></g></g>
</svg>

<?xml version="1.0" encoding="UTF-8" standalone="no"?>
<svg
   xmlns:dc="http://purl.org/dc/elements/1.1/"
   xmlns:cc="http://creativecommons.org/ns#"
   xmlns:rdf="http://www.w3.org/1999/02/22-rdf-syntax-ns#"
   xmlns:svg="http://www.w3.org/2000/svg"
   xmlns="http://www.w3.org/2000/svg"
   xmlns:sodipodi="http://sodipodi.sourceforge.net/DTD/sodipodi-0.dtd"
   xmlns:inkscape="http://www.inkscape.org/namespaces/inkscape"
   inkscape:version="1.0 (6e3e5246a0, 2020-05-07)"
   sodipodi:docname="grid.svg"
   id="svg10"
   xml:space="preserve"
   enable-background="new 0 0 1000 1000"
   viewBox="0 0 1000 1000"
   y="0px"
   x="0px"
   version="1.1"><defs
   id="defs14" /><sodipodi:namedview
   inkscape:current-layer="svg10"
   inkscape:window-maximized="1"
   inkscape:window-y="27"
   inkscape:window-x="67"
   inkscape:cy="500"
   inkscape:cx="500"
   inkscape:zoom="0.932"
   inkscape:pagecheckerboard="true"
   showgrid="false"
   id="namedview12"
   inkscape:window-height="1385"
   inkscape:window-width="3373"
   inkscape:pageshadow="2"
   inkscape:pageopacity="0"
   guidetolerance="10"
   gridtolerance="10"
   objecttolerance="10"
   borderopacity="1"
   bordercolor="#666666"
   pagecolor="#ffffff" />
<metadata
   id="metadata2"> Svg Vector Icons : http://www.onlinewebfonts.com/icon <rdf:RDF><cc:Work
     rdf:about=""><dc:format>image/svg+xml</dc:format><dc:type
       rdf:resource="http://purl.org/dc/dcmitype/StillImage" /><dc:title></dc:title></cc:Work></rdf:RDF></metadata>
<g
   style="fill:#000000;fill-opacity:1"
   id="g8"><g
     style="fill:#000000;fill-opacity:1"
     id="g6"
     transform="translate(0.000000,511.000000) scale(0.100000,-0.100000)"><path
       style="fill:#000000;fill-opacity:1"
       id="path4"
       d="M521.3,4979.1c-164.8-58.6-360-262.4-403.4-420.8C102.7,4502,98.3,3057.5,100.5,64.4l6.5-4411.5l58.6-101.9c32.5-54.2,104.1-138.8,158.3-186.5c193-169.2-210.4-156.2,4673.9-156.2c4975.4,0,4493.9-19.5,4708.6,193c212.6,214.7,193-266.8,193,4708.6c0,4975.4,19.5,4493.9-193,4708.6c-214.7,212.5,268.9,193-4717.3,193C1319.4,5009.5,592.8,5005.2,521.3,4979.1z M2308.4,3721.2v-921.8h-921.8H464.9v841.5c0,629,6.5,852.4,28.2,893.6c52.1,104.1,75.9,108.4,976,108.4h839.4V3721.2z M4802.7,3721.2v-921.8H3739.9H2677.2v921.8V4643h1062.7h1062.8V3721.2z M7318.6,3721.2v-921.8H6255.8H5193.1v921.8V4643h1062.8h1062.7V3721.2z M9409.4,4621.3c117.1-43.4,121.4-75.9,121.4-986.8v-835H8609h-921.8v921.8V4643h832.9C8999.4,4643,9376.8,4634.3,9409.4,4621.3z M2308.4,1367.9V305.2h-921.8H464.9v1062.8v1062.8h921.8h921.8V1367.9z M4802.7,1367.9V305.2H3739.9H2677.2v1047.6c0,576.9,6.5,1056.3,15.2,1062.8c6.5,8.7,485.8,15.2,1062.7,15.2h1047.6V1367.9z M7314.2,1363.6l4.3-1058.4H6255.8H5193.1v1062.8v1062.8l1058.4-4.3l1056.3-6.5L7314.2,1363.6z M9530.8,1367.9V305.2H8609h-921.8v1062.8v1062.8H8609h921.8V1367.9z M2308.4-1139.3v-1071.4h-921.8H464.9v1071.4V-67.9h921.8l921.8,2.2V-1139.3z M4802.7-1139.3v-1071.4l-1056.2,4.3l-1058.4,6.5l-6.5,1041.1c-2.2,572.6,0,1051.9,4.3,1064.9c6.5,19.5,295,26,1062.7,26h1054.1V-1139.3z M7307.7-1137.1v-1062.8l-1056.3-6.5l-1058.4-4.3v1071.4V-67.9L6251.5-70l1056.3-4.3V-1137.1z M9530.8-1139.3v-1071.4H8609h-921.8v1071.4V-65.7l921.8-2.2h921.8V-1139.3z M2308.4-3501.2v-923.9l-867.6,6.5l-865.4,6.5l-49.9,49.9l-49.9,49.9l-6.5,865.4l-6.5,867.5h924h921.8V-3501.2z M4802.7-3501.2V-4423H3739.9H2677.2v921.8v921.8h1062.7h1062.8V-3501.2z M7318.6-3501.2V-4423H6255.8H5193.1v921.8v921.8h1062.8h1062.7V-3501.2z M9530.8-3414.4c0-598.6-6.5-848-26-889.2c-52.1-117.1-73.7-119.3-982.5-119.3h-835v921.8v921.8H8609h921.8V-3414.4z" /></g></g>
</svg>
